!!!COM: Haydn, Franz Joseph
!!!OPR: String Quartet in B-flat Major
!!!ONM: Opus 76, No. 4
!!!OTL: Affettuoso 
!!!OMV: 4
!!!SCT: H III:78
!!!SCA: Thematisch-bibliographisches Werkevererzeichnis (A. van Hoboken)
!!!YOR: Trautwein Edition
!!!EED: Frances Bennion
!!!ENC: Frances Bennion
!!!CDT: 1732/3/31/-1809/5/31/
!!!OCY: Österreich
!!!YEC: Copyright (c) 1994, 2000 Center for Computer Assisted Research in the Humanities
!!!YEM: Rights to all derivative editions reserved.
!!!YEM: Refer to licensing agreement for further details.
!!!YEN: United States of America
**kern	**kern	**kern	**kern
*k[b-e-]	*k[b-e-]	*k[b-e-]	*k[b-e-]
*B-:	*B-:	*B-:	*B-:
*clefF	*clefF	*clefC3	*clefF4
*M2/2	*M2/2	*M2/2	*M2/2
*tb16	*tb16	*tb16	*tb16
=0-	=0-	=0-	=0-
2.r	2.r	2.r	2.r
8ff	8f	4r	4r
8ee-	8a	.	.
=1	=1	=1	=1
4dd	4b-	4r	2.r
4ee-	8e-	8c	.
.	8f	8d	.
4cc	4g	4e-	.
8dd	8f	8d	8BB-
8cc	8e-	8e-	8C
=2	=2	=2	=2
4b-	4d	4f	4D
4cc	8c	4g	4E-
.	8B-	.	.
4f	4A	4c	4F
8g	8B-	8d	4E-
8a	8c	8e-	.
=3	=3	=3	=3
4b-	4d	4f	4D
4cc	4e-	4e-	4C
4dd	4f	4d	4BB-
4gg	4b-	4c	4EE-
=4	=4	=4	=4
8cc	8a	4c	2FF
8b-	8b-	.	.
8cc	8a	2.r	.
8dd	8b-	.	.
4cc	4a	.	2r
8ff	8f	.	.
8ee-	8a	.	.
=5	=5	=5	=5
4dd	4b-	4r	2.r
4ee-	8e-	8c	.
.	8f	8d	.
4cc	4g	4e-	.
8dd	8f	8d	8BB-
8cc	8e-	8e-	8C
=6	=6	=6	=6
4b-	4d	4f	4D
4cc	8c	4g	4E-
.	8B-	.	.
4f	4A	4c	4F
8g	8B-	8d	4E-
8a	8c	8e-	.
=7	=7	=7	=7
4b-	8d	4f	4D
.	8dd	.	.
4bb-	8cc	4g	4E
.	8b-	.	.
2cc	4b-	4f	2F
.	4a	4e-	.
=8	=8	=8	=8
4b-	4b-	4d	4BB-
4f	2r	2.r	4B-
4d	.	.	4BB-
8a	8f	.	4r
8b-	8g	.	.
=9	=9	=9	=9
4cc	4a	4f	1r
4dd	4b-	8e-	.
.	.	8d	.
4ee-	4cc	4c	.
8b-	8g	4r	.
8cc	8a	.	.
=10	=10	=10	=10
4dd	4b-	4g	2.r
4ee-	4cc	8f	.
.	.	8e-	.
4ff	4dd	4d	.
8gg	8gg	8dd	8B-
8aa	8ff#	8cc	8A
=11	=11	=11	=11
4bb-	4gg	4b-	4G
4ddd	4b-	4g	4GG
2ff#	8a	4cc	4D
.	8ee-	.	.
.	8dd	8b-	4d
.	8cc	8a	.
=12	=12	=12	=12
2.gg	4b-	4g	4e-
.	4cc	8f	8d
.	.	8e-	8c
.	4dd	4d	4B
8ff	8dd	4r	4r
8gg	8ee-	.	.
=13	=13	=13	=13
4aa-	4ff	4r	1r
8gg	8ee-	4g	.
8ff	8dd	.	.
4ee-	4cc	4a-	.
4ff	4dd	8g	.
.	.	8f	.
=14	=14	=14	=14
4gg	4ee-	4e-	1r
8ff	8dd	4f	.
8ee-	8cc	.	.
4dd	4b-	4g	.
4ee-	4cc	8f	.
.	.	8e-	.
=15	=15	=15	=15
4ff	4dd	4d	2.r
8ee-	8cc	4e-	.
8dd	8b-	.	.
4cc	4a	4f	.
4dd	8dd	4f	8B-
.	8cc	.	8A
=16	=16	=16	=16
8ee	8b-	8g	8G
8ff	8a	8a	8F
8gg	8g	8b-	8E
8aa	8f	8cc	8D
4bb-	4e	4dd	4C
4ee	4g	8b-	8c
.	.	8g	8B-
=17	=17	=17	=17
4ff	4a	4f	8A
.	.	.	8F
4ee	4g	4b-	8c
.	.	.	8B-
4ff	4f	4cc	8A
.	.	.	8F
4ee	4g	8b-	8C
.	.	8g	8BB-
=18	=18	=18	=18
4ff	4a	4f	8AA
.	.	.	8FF
4ee	4g	8c	8C
.	.	8B-	8BB-
4ff	4f	8A	8AA
.	.	8F	8FF
8a	8f	4r	4r
8b-	8g	.	.
=19	=19	=19	=19
8cc	8a	4F	4FF
8a	8f	.	.
8cc	8a	2.r	2.r
8dd	8b-	.	.
8ee-	8cc	.	.
8cc	8a	.	.
8ee-	8cc	.	.
8ff	8dd	.	.
=20	=20	=20	=20
2.gg	2.ee-	4C 4A	4FF
.	.	2.r	2.r
8ff	8dd	.	.
8ee-	8cc	.	.
=21	=21	=21	=21
2.gg	2.ee-	4A 4C	4FF
.	.	2.r	2.r
8ff	8dd	.	.
8ee-	8cc	.	.
=22	=22	=22	=22
8gg	8ee-	4C 4A	4FF
8ff	8dd	.	.
8ee-	8cc	2.r	2.r
8gg	8ee-	.	.
8ff	8dd	.	.
8ee-	8cc	.	.
8gg	8ee-	.	.
8ff	8dd	.	.
=23	=23	=23	=23
8ee-	8cc	1r	1r
8gg	8ee-	.	.
8ff	8dd	.	.
8ee-	8cc	.	.
8gg	8ee-	.	.
8ff	8dd	.	.
8ee-	8cc	.	.
8gg	8ee-	.	.
=24	=24	=24	=24
8ff	8dd	1r	1r
8ee-	8cc	.	.
8gg	8ee-	.	.
8ff	8dd	.	.
8ee-	8cc	.	.
8gg	8ee-	.	.
8ff	8f	.	.
8ee-	8a	.	.
=25	=25	=25	=25
4dd	4b-	4r	2.r
4ee-	8e-	8c	.
.	8f	8d	.
4cc	4g	4e-	.
8dd	8f	8d	8BB-
8cc	8e-	8e-	8C
=26	=26	=26	=26
4b-	4d	4f	4D
4cc	8c	4g	4E-
.	8B-	.	.
4f	4A	4c	4F
8g	8B-	8d	4E-
8a	8c	8e-	.
=27	=27	=27	=27
4b-	4d	4f	4D
4cc	4e-	4e-	4C
4dd	4f	4d	4BB-
4gg	4b-	4c	4EE-
=28	=28	=28	=28
8cc	8a	2c	[1FF
8b-	8b-	.	.
8cc	8a	.	.
8dd	8b-	.	.
4cc	4a	4r	.
4r	8ff	8dd	.
.	8ee-	8cc	.
=29	=29	=29	=29
8gg	4dd	4b	1FF_
8ff	.	.	.
4ee-	4ee-	4cc	.
4ff	4cc	4a	.
4dd	8dd	8b-	.
.	8cc	8a	.
=30	=30	=30	=30
8ee-	4b-	4g	2.FF]
8dd	.	.	.
4cc	4cc	4a	.
4dd	4a	4f	.
4b-	8b-	4d	8G
.	8a	.	8F
=31	=31	=31	=31
8cc	4g	8e-	4E-
8b-	.	8d	.
4a	8a	4c	8F
.	8g	.	8E-
4b-	4f	4d	4D
4ee- 4f	4cc	4f	4AA
=32	=32	=32	=32
4dd 4f	4b-	4B-	4BB-
4gg 4b-	4e-	2r	2r
4b- 4ff	4d	.	.
4aa- 4b-	4aa-	4f	4D
=33	=33	=33	=33
4b- 4gg	4gg	4B-	4E-
4bb-	4b- 4g	4d-	4E
2cc	4b- 4f	4f	2F
.	4a 4e-	4f	.
=34	=34	=34	=34
4b-	4d 4b-	4f	4B-
2r	4.r	2.r	4F
.	.	.	4BB-
.	4.r	.	.
8ff	.	.	4r
8bb-	.	.	.
=35	=35	=35	=35
8ddd-	4ff	4F	4BB-
8bb-	.	.	.
8aa	4ee-	8c	4C
8ccc	.	8A	.
4bb-	4dd-	4B-	4D-
8b-	4gg-	4c	4E-
8gg-	.	.	.
=36	=36	=36	=36
8ff	4ff	4d-	4F
8b-	.	.	.
8a	4cc	8e-	4A
8ee-	.	8f	.
4dd-	4dd-	4B-	4B-
4dd	4B-	4f	4A-
=37	=37	=37	=37
4ee-	4b-	4e-	4G-
4ff	4a-	4dd	4F
4gg-	4g-	4ee-	4E-
4cc	4e-	4A-	4G-
=38	=38	=38	=38
4dd-	4f	4a-	4F
4ee-	4g-	4cc	4E-
4ff	4a-	4dd-	4D-
4A- 4a-	4e-	4c	4C
=39	=39	=39	=39
4A- 4a-	4f	4d-	4D-
4a- 4A-	4g-	4e-	4E-
4a- 4A-	4e-	4c	4C
4a- 4A-	4f	4d-	4D-
=40	=40	=40	=40
4.a- 4.A-	4g-	4e-	4E-
.	4e-	4c	4C
8g-	.	.	.
4f	4f	4A-	4D-
4b-	4e	4A-	4G
=41	=41	=41	=41
4a-	4f	4A-	4A-
4b-	4e	2A-	4G
4a-	4f	.	4A-
8gg-	4c	8e-	4AA-
8ee-	.	8g-	.
=42	=42	=42	=42
4dd-	4d-	4f	4D-
4ddd-	2r	4D-	4DD-
4r	.	4r	4r
4gg-	4ee-	4a-	4c
=43	=43	=43	=43
4ff	4dd-	4a-	4d-
4gg-	4ee-	4a-	4c
4ff	4dd-	4a-	4d-
4aa-	4ff	4cc-	4d
=44	=44	=44	=44
4gg-	4ee-	4b-	4e-
4aa-	4ff	4cc-	4d
4gg-	4ee-	4b-	4e-
4bb-	4gg	4dd-	4e
=45	=45	=45	=45
4aa	4ff	4cc	4f
4bb-	4gg	4dd-	4e
4aa	4ff	4cc	4f
4ddd-	4ee	4b-	[4f
=46	=46	=46	=46
4ccc	4ff	4a	4f]
4ddd-	4ee	4b-	2f
4ccc	4ff	4a	.
8bb-	4b-	[4cc	4g-
8ee	.	.	.
=47	=47	=47	=47
8ff	4a	4cc]	4f
8cc	.	.	.
8bb-	4b-	2cc	4g-
8ee	.	.	.
8ff	4a	.	4f
8cc	.	.	.
8bb-	4b-	[4cc	4g-
8ee	.	.	.
=48	=48	=48	=48
8ff	4a	4cc]	4f
8cc	.	.	.
8ff	4a	4cc	4f
8cc	.	.	.
4ff	4a	4cc	4f
8ff	4r	4r	4r
8bb-	.	.	.
=49	=49	=49	=49
8ddd-	4ff	4F	4BB-
8bb-	.	.	.
8aa	4ee-	8c	4C
8ccc	.	8A	.
4bb-	4dd-	4B-	4D-
8b-	4gg-	4c	4E-
8gg-	.	.	.
=50	=50	=50	=50
8ff	4ff	4d-	4F
8b-	.	.	.
8a	4cc	8e-	4A
8ee-	.	8f	.
4dd-	4dd-	4B-	4B-
4dd	4B-	4f	4A-
=51	=51	=51	=51
4ee-	4b-	4e-	4G-
4ff	4a-	4a-	4F
4gg-	4g-	4b-	4E-
4gg-	4e-	4B-	4E-
=52	=52	=52	=52
[2A	2.g-	2.c	2.E-
8A]	.	.	.
8gg-	.	.	.
8ff	4cc	4f	4AA
8ee-	.	.	.
=53	=53	=53	=53
8dd-	4dd-	4f	4BB-
8ddd-	.	.	.
8ccc	4r	4r	4r
8bb-	.	.	.
8aa	4ee-	4f	4C
8ggg-	.	.	.
8fff	4r	4r	4r
8eee-	.	.	.
=54	=54	=54	=54
4ddd-	4ff	4B-	4D-
4bbb-	2.r	2.r	2.r
4bbb-	.	.	.
4bbb-	.	.	.
=55	=55	=55	=55
4e-	4e-	4E-	4E-
4r	4r	4r	4r
4f	4f	4F	4F
4r	4r	4r	4r
=56	=56	=56	=56
4B-	4B-	4B-	4BB-
2r	2r	2r	2r
4gg-	4ee-	4a-	4c
=57	=57	=57	=57
4ff	4dd-	4a-	4d-
4gg-	4ee-	4a-	4c
4ff	4dd-	4a-	4d-
4aa-	4ff	4cc-	4d
=58	=58	=58	=58
4gg-	4ee-	4b-	4e-
4aa-	4ff	4cc-	4d
4gg-	4ee-	4b-	4e-
4bb-	4gg	4dd-	4e
=59	=59	=59	=59
4aa	4ff	4cc	4f
4bb-	4gg	4dd-	4e
4aa	4ff	4cc	4f
4ddd-	4ee	4b-	[4f
=60	=60	=60	=60
4ccc	4ff	4a	4f]
4ddd-	4ee	4b-	2f
4ccc	4ff	4a	.
8bb-	4b-	[4cc	4g-
8ee	.	.	.
=61	=61	=61	=61
8ff	4a	4cc]	4f
8cc	.	.	.
8bb-	4b-	2cc	4g-
8ee	.	.	.
8ff	4a	.	4f
8cc	.	.	.
8bb-	4b-	[4cc	4g-
8ee	.	.	.
=62	=62	=62	=62
8ff	4a	4cc]	4f
8cc	.	.	.
8ff	4a	4cc	4f
8cc	.	.	.
4ff	4a	4cc	4f
8ff	4r	4r	4r
8bb-	.	.	.
=63	=63	=63	=63
8ddd-	4ff	4F	4BB-
8bb-	.	.	.
8aa	4ee-	8c	4C
8ccc	.	8A	.
4bb-	4dd-	4B-	4D-
8b-	4gg-	4c	4E-
8gg-	.	.	.
=64	=64	=64	=64
8ff	4ff	4d-	4F
8b-	.	.	.
8a	4cc	8e-	4A
8ee-	.	8f	.
4dd-	4dd-	4B-	4B-
4dd	4B-	4f	4A-
=65	=65	=65	=65
4ee-	4b-	4e-	4G-
4ff	4a-	4a-	4F
4gg-	4g-	4b-	4E-
4gg-	4e-	4B-	4E-
=66	=66	=66	=66
2.A	1g-	1c	1E-
8a	.	.	.
8b-	.	.	.
=67	=67	=67	=67
4cc	1r	1r	1r
8cc	.	.	.
8dd-	.	.	.
4ee-	.	.	.
8ee-	.	.	.
8ff	.	.	.
=68	=68	=68	=68
2.gg-	1e-	1c	1AA
8ee-	.	.	.
8ff	.	.	.
=69	=69	=69	=69
4gg-	1r	1r	1r
8gg-	.	.	.
8ff	.	.	.
4ee-	.	.	.
8ee-	.	.	.
8ff	.	.	.
=70	=70	=70	=70
4gg-	1r	1r	1r
8gg-	.	.	.
8ff	.	.	.
4ee-	.	.	.
8ee-	.	.	.
8ff	.	.	.
=71	=71	=71	=71
4gg-	1r	1r	1r
8gg-	.	.	.
8ff	.	.	.
4ee-	.	.	.
8ee-	.	.	.
8ff	.	.	.
=72	=72	=72	=72
4gg-	1r	1r	1r
8gg-	.	.	.
8ff	.	.	.
4ee-	.	.	.
8gg-	.	.	.
8ff	.	.	.
=73	=73	=73	=73
4ee-	1r	1r	1r
8gg-	.	.	.
8ff	.	.	.
4ee-	.	.	.
8gg-	.	.	.
8ff	.	.	.
=74	=74	=74	=74
4ee-	2.r	1r	1r
8gg-	.	.	.
8ff	.	.	.
4ee-	.	.	.
8ff	8f	.	.
8ee-	8a	.	.
=75	=75	=75	=75
4dd	4b-	4r	2.r
4ee-	8e-	8c	.
.	8f	8d	.
4cc	4g	4e-	.
8dd	8f	8d	8BB-
8cc	8e-	8e-	8C
=76	=76	=76	=76
4b-	4d	4f	4D
4cc	8c	4g	4E-
.	8B-	.	.
4f	4A	4c	4F
8g	8B-	8d	4E-
8a	8c	8e-	.
=77	=77	=77	=77
4b-	4d	4f	4D
4cc	4e-	4e-	4C
4dd	4f	4d	4BB-
4gg	4b-	4c	4EE-
=78	=78	=78	=78
8cc	8a	4c	2FF
8b-	8b-	.	.
8cc	8a	2.r	.
8dd	8b-	.	.
8cc	4a	.	2r
8gg	.	.	.
8ff	4r	.	.
8ee-	.	.	.
=79	=79	=79	=79
8dd	4r	4r	4r
8ff	.	.	.
8ee-	4f	4d	4BB-
8dd	.	.	.
8cc	4r	4r	4r
8ee-	.	.	.
8dd	4e-	4A	4F
8cc	.	.	.
=80	=80	=80	=80
8b-	4r	4r	4r
8dd	.	.	.
8cc	4d	4B-	4G
8b-	.	.	.
8a-	4r	4r	4r
8cc	.	.	.
8b-	4f	4B-	4D
8a-	.	.	.
=81	=81	=81	=81
4g	8g	4B-	4E-
.	8dd	.	.
4bb-	8cc	4g	4E
.	8b-	.	.
2cc	4b-	4f	2F
.	4a	4e-	.
=82	=82	=82	=82
4b-	4b-	4d	4BB-
4f	2r	2.r	4B-
4d	.	.	4BB-
8a	8f	.	4r
8b-	8g	.	.
=83	=83	=83	=83
4cc	4a	4f	1r
4dd	4b-	8e-	.
.	.	8d	.
4ee-	4cc	4c	.
8b-	8g	4r	.
8cc	8a	.	.
=84	=84	=84	=84
4dd	4b-	4g	2.r
4ee-	4cc	8f	.
.	.	8e-	.
4ff	4dd	4d	.
8gg	8gg	8dd	8B-
8aa	8ff#	8cc	8A
=85	=85	=85	=85
4bb-	4gg	4b-	4G
4ddd	4b-	4g	4GG
2ff#	8a	4cc	4D
.	8ee-	.	.
.	8dd	8b-	4d
.	8cc	8a	.
=86	=86	=86	=86
2.gg	4b-	4g	4e-
.	4cc	8f	8d
.	.	8e-	8c
.	4dd	4d	4B
8ff	8dd	4r	4r
8gg	8ee-	.	.
=87	=87	=87	=87
4aa-	4ff	4r	1r
8gg	8ee-	4g	.
8ff	8dd	.	.
4ee-	4cc	4a-	.
4ff	4dd	8g	.
.	.	8f	.
=88	=88	=88	=88
4gg	4ee-	4e-	1r
8ff	8dd	4f	.
8ee-	8cc	.	.
4dd	4b-	4g	.
4ee-	4cc	8f	.
.	.	8e-	.
=89	=89	=89	=89
4ff	4dd	4d	2.r
8ee-	8cc	4e-	.
8dd	8b-	.	.
4cc	4a	4f	.
4dd	8dd	4f	8B-
.	8cc	.	8A
=90	=90	=90	=90
8ee	8b-	8g	8G
8ff	8a	8a	8F
8gg	8g	8b-	8E
8aa	8f	8cc	8D
4bb-	4e	4dd	4C
4ee	4g	8b-	8c
.	.	8g	8B-
=91	=91	=91	=91
4ff	4a	4f	8A
.	.	.	8F
4ee	4g	4b-	8c
.	.	.	8B-
4ff	4f	4cc	8A
.	.	.	8F
4ee	4g	8b-	8C
.	.	8g	8BB-
=92	=92	=92	=92
4ff	4a	4f	8AA
.	.	.	8FF
4ee	4g	8c	8C
.	.	8B-	8BB-
4ff	4f	8A	8AA
.	.	8F	8FF
8a	8f	4r	4r
8b-	8g	.	.
=93	=93	=93	=93
8cc	8a	4F	4FF
8a	8f	.	.
8cc	8a	2.r	2.r
8dd	8b-	.	.
8ee-	8cc	.	.
8cc	8a	.	.
8ee-	8cc	.	.
8ff	8dd	.	.
=94	=94	=94	=94
2.gg	2.ee-	4r	4r
.	.	8A	8F
.	.	8B-	8G
.	.	8c	8A
.	.	8A	8F
8ff	8dd	4r	4r
8ee-	8cc	.	.
=95	=95	=95	=95
2.gg	2.ee-	4r	4r
.	.	8A	8F
.	.	8B-	8G
.	.	8c	8A
.	.	8A	8F
8ff	8dd	4r	4r
8ee-	8cc	.	.
=96	=96	=96	=96
8gg	8ee-	1r	1r
8ff	8dd	.	.
8ee-	8cc	.	.
8gg	8ee-	.	.
8ff	8dd	.	.
8ee-	8cc	.	.
8gg	8ee-	.	.
8ff	8dd	.	.
=97	=97	=97	=97
8ee-	8cc	1r	1r
8gg	8ee-	.	.
8ff	8dd	.	.
8ee-	8cc	.	.
8gg	8ee-	.	.
8ff	8dd	.	.
8ee-	8cc	.	.
8gg	8ee-	.	.
=98	=98	=98	=98
8ff	8dd	1r	1r
8ee-	8cc	.	.
8gg	8ee-	.	.
8ff	8dd	.	.
8ee-	8cc	.	.
8gg	8f	.	.
8ff	8g	.	.
8ee-	8a	.	.
=99	=99	=99	=99
4dd	4b-	8r	2r
.	.	8B-	.
4ee-	8e-	8c	.
.	8f	8d	.
4cc	4g	4e-	8r
.	.	.	8AA
8dd	8f	8d	8BB-
8cc	8e-	8e-	8C
=100	=100	=100	=100
4b-	4d	4f	4D
4cc	8c	4g	4E-
.	8B-	.	.
4f	4A	4c	4F
8g	8B-	8d	4E-
8a	8c	8e-	.
=101	=101	=101	=101
4b-	4d	4f	4D
4cc	4e-	4e-	4C
4dd	4f	4d	4BB-
4gg	4b-	4c	4EE-
=102	=102	=102	=102
8cc	8a	2c	[1FF
8b-	8b-	.	.
8cc	8a	.	.
8dd	8b-	.	.
4cc	8a	8r	.
.	8gg	8ee-	.
8r	8ff	8dd	.
8aa-	8ee-	8cc	.
=103	=103	=103	=103
8gg	8dd	8b	1FF_
8ff	8ff	8dd	.
8ee-	8ee-	8cc	.
8gg	8dd	8b-	.
8ff	8cc	8a	.
8ee-	8ee-	8cc	.
8dd	8dd	8b-	.
8ff	8cc	8a	.
=104	=104	=104	=104
8ee-	8b-	8g	2FF]
8dd	8dd	8b-	.
8cc	8cc	8a	.
8ee-	8b-	8g	.
8dd	4a	8f	8F
8cc	.	8f#	8F#
8b-	[4g	8g	8G
8b	.	8f	8F
=105	=105	=105	=105
8cc	4g]	8e-	8E-
8b-	.	8g	8G
8a	4a	8f	8F
8cc	.	8e-	8E-
4b-	4b-	4d	4D
4ee- 4f	4cc	4f	4AA
=106	=106	=106	=106
4dd 4f	4b-	4B-	4BB-
4gg 4b-	4e-	2r	2r
4ff 4b-	4d	.	.
4aa- 4b-	4aa- 4b-	4f	4D
=107	=107	=107	=107
2gg 2b-	2b- 2gg	2B-	2E-
2bb- 2dd- 2e	2d-	2g	2E
=108	=108	=108	=108
4.r	4.r	4.r	4.r
8e	8e	8E	8EE
4.e	4.e	4.E	4.EE
16d	16d	16D	16DD
16e	16e	16E	16EE
=109	=109	=109	=109
[1f	[1f	[1F	[1FF
=110	=110	=110	=110
2f_	2f]	1F]	1FF]
8f]	2r	.	.
8g	.	.	.
8f]	.	.	.
8e-	.	.	.
=111	=111	=111	=111
8d	1r	1r	1r
8f	.	.	.
8e-	.	.	.
8d	.	.	.
8c	.	.	.
8e-	.	.	.
8d	.	.	.
8c	.	.	.
=112	=112	=112	=112
8B-	1r	1r	1r
8d	.	.	.
8c	.	.	.
8B-	.	.	.
8A	.	.	.
8g	.	.	.
8f	.	.	.
8e-	.	.	.
=113	=113	=113	=113
4d	8d	2r	1r
.	8f	.	.
2.r	8e-	.	.
.	8d	.	.
.	8c	8c	.
.	4.r	8e-	.
.	.	8d	.
.	.	8c	.
=114	=114	=114	=114
2r	1r	4B-	8B-
.	.	.	8d
.	.	2.r	8c
.	.	.	8B-
8r	.	.	8A
8a-	.	.	4.r
8g	.	.	.
8f	.	.	.
=115	=115	=115	=115
4e-	8r	2r	1r
.	8g	.	.
2.r	8f	.	.
.	8e-	.	.
.	4d	8r	.
.	.	8f	.
.	4r	8e-	.
.	.	8d	.
=116	=116	=116	=116
2r	1r	4c	8r
.	.	.	8e-
.	.	2.r	8d
.	.	.	8c
8r	.	.	4B
8G	.	.	.
8A	.	.	4r
8B	.	.	.
=117	=117	=117	=117
4c	8r	2r	1r
.	8B	.	.
2.r	8c	.	.
.	8d	.	.
.	4e-	8r	.
.	.	8F	.
.	4r	8G	.
.	.	8A	.
=118	=118	=118	=118
2r	1r	4B-	8r
.	.	.	8A
.	.	2r	8B-
.	.	.	8c
8r	.	.	4d
8g	.	.	.
8a	.	4f	4r
8b	.	.	.
=119	=119	=119	=119
4cc	8r	4e-	4r
.	8b	.	.
4.r	8cc	2r	4d
.	8dd	.	.
.	4ee-	.	4c
8f	.	.	.
8g	4r	4e-	4r
8a	.	.	.
=120	=120	=120	=120
4b-	8r	4d	4r
.	8a	.	.
4.r	8b-	2r	4c
.	8cc	.	.
.	4dd	.	4B-
8dd	.	.	.
8ee	4r	4cc	4r
8ff#	.	.	.
=121	=121	=121	=121
8gg	4r	4b-	1r
8ff#	.	.	.
8gg	4a	2r	.
8aa	.	.	.
8bb-	4g	.	.
8cc	.	.	.
8dd	4r	4b-	.
8ee	.	.	.
=122	=122	=122	=122
8ff	4r	4a-	2r
8ee	.	.	.
8ff	4g	2.r	.
8gg	.	.	.
4aa-	4f	.	8r
.	.	.	8C
4dd	4f	.	8BB-
.	.	.	8AA-
=123	=123	=123	=123
4ee-	4g	8B-	8GG
.	.	8c	8AA-
4ff	4a-	8B-	8GG
.	.	8A-	8FF
4gg	4b-	4G	8EE-
.	.	.	8AA-
4b	4d	4r	8GG
.	.	.	8FF
=124	=124	=124	=124
4cc	4e-	8G	8EE-
.	.	8A-	8FF
4dd	4f	8G	8EE-
.	.	8F	8DD
8ee-	4g	4E-	4CC
8gg	.	.	.
8ff	4a	4c	4FF
8ee-	.	.	.
=125	=125	=125	=125
8dd	4b-	4d	4BB-
8ee-	.	.	.
8dd	4.r	4.r	4.r
8cc	.	.	.
8b-	.	.	.
8gg	8ee-	8A	8F
8ff	8dd	8B-	8G
8ee-	8cc	8c	8A
=126	=126	=126	=126
8dd	4b-	4d	4B-
8ee-	.	.	.
8dd	4.r	4.r	4.r
8cc	.	.	.
8b-	.	.	.
8gg	8ee-	8A	8F
8ff	8dd	8B-	8G
8ee-	8cc	8c	8A
=127	=127	=127	=127
8dd	8b-	8d	8B-
8gg	8ee-	8A	8F
8ff	8dd	8B-	8G
8ee-	8cc	8c	8A
8dd	8b-	8d	8B-
8gg	8ee-	8A	8F
8ff	8dd	8B-	8G
8ee-	8cc	8c	8A
=128	=128	=128	=128
8dd	8b-	8d	8B-
8gg	8ee-	8A	8F
8ff	8dd	8B-	8G
8ee-	8cc	8c	8A
8dd	8b-	8d	8B-
8gg	8ee-	8A	8F
8ff	8dd	8B-	8G
8ee-	8cc	8c	8A
=129	=129	=129	=129
8dd	4b-	4d	4B-
8ff	.	.	.
8ee-	4r	4r	4r
8dd	.	.	.
8cc	4a	4e-	4F
8ee-	.	.	.
8dd	4r	4r	4r
8cc	.	.	.
=130	=130	=130	=130
8b-	4b-	4d	4G
8dd	.	.	.
8cc	4g	4e	4E
8b-	.	.	.
8a	8f	8f	4F
8f	8A	8c	.
8g	8B-	8d	4E-
8a	8c	8e-	.
=131	=131	=131	=131
8cc	4d	4f	4D
8b-	.	.	.
8dd	4e-	4e-	4C
8cc	.	.	.
8ee-	4f	4d	4BB-
8dd	.	.	.
8gg	4b-	4c	4EE-
8ee-	.	.	.
=132	=132	=132	=132
8cc	8a	4c	2FF
8b-	8b-	.	.
8cc	8a	2.r	.
8dd	8b-	.	.
8cc	4a	.	2r
8gg	.	.	.
8ff	4r	.	.
8ee-	.	.	.
=133	=133	=133	=133
8dd	4f	4d	4B-
8ff	.	.	.
8ee-	4r	4r	4r
8dd	.	.	.
8cc	4e-	4A	4F
8ee-	.	.	.
8dd	4r	4r	4r
8cc	.	.	.
=134	=134	=134	=134
8b-	4d	4B-	4G
8dd	.	.	.
8cc	4r	4r	4r
8b-	.	.	.
8a-	4f	4B-	4D
8cc	.	.	.
8b-	4r	4r	4r
8a-	.	.	.
=135	=135	=135	=135
4g	8g	4B-	4E-
.	8dd	.	.
4bb-	8cc	4g	4E
.	8b-	.	.
2cc	4b-	4f	2F
.	4a	4e-	.
=136	=136	=136	=136
4b-	4b-	4d	4BB-
4.r	4f	2.r	4B-
.	4d	.	4BB-
8dd	.	.	.
8cc	4r	.	4r
8b-	.	.	.
=137	=137	=137	=137
8a	4f	1r	1r
8cc	.	.	.
8b-	4g	.	.
8dd	.	.	.
8cc	4a	.	.
8ff	.	.	.
8ee	4b-	.	.
8gg	.	.	.
=138	=138	=138	=138
8ff	4a	1r	1r
8aa	.	.	.
8gg	2.r	.	.
8ee	.	.	.
8ff	.	.	.
8dd	.	.	.
8cc	.	.	.
8b-	.	.	.
=139	=139	=139	=139
8a	4f	1r	1r
8cc	.	.	.
8b-	4g	.	.
8dd	.	.	.
8cc	4a	.	.
8ff	.	.	.
8ee	4b-	.	.
8gg	.	.	.
=140	=140	=140	=140
8ff	4a	1r	1r
8aa	.	.	.
8gg	2.r	.	.
8ee	.	.	.
8ff	.	.	.
8dd	.	.	.
8cc	.	.	.
8b-	.	.	.
=141	=141	=141	=141
8a	4f	1r	1r
8cc	.	.	.
8b-	4g	.	.
8dd	.	.	.
8cc	4a	.	.
8ee-	.	.	.
8dd	4b-	.	.
8ff	.	.	.
=142	=142	=142	=142
8ee-	4cc	1r	1r
8dd	.	.	.
8ee-	2.r	.	.
8dd	.	.	.
8ee-	.	.	.
8gg	.	.	.
8ff	.	.	.
8ee-	.	.	.
=143	=143	=143	=143
8dd	4b-	4f	4B-
8ff	.	.	.
8ee-	4r	4r	4r
8dd	.	.	.
8cc	4a	4e-	4F
8ee-	.	.	.
8dd	4r	4r	4r
8cc	.	.	.
=144	=144	=144	=144
8b-	4b-	4d	4G
8dd	.	.	.
8cc	4g	4e	4E
8b-	.	.	.
8a	8f	8f	4F
8f	8A	8c	.
8g	8B-	8d	4E-
8a	8c	8e-	.
=145	=145	=145	=145
8cc	4d	4f	4D
8b-	.	.	.
8dd	4e-	4e-	4C
8cc	.	.	.
8ee-	4f	4d	4BB-
8dd	.	.	.
8gg	4b-	4c	4EE-
8ee-	.	.	.
=146	=146	=146	=146
8cc	8a	4c	2FF
8b-	8b-	.	.
8cc	8a	2.r	.
8dd	8b-	.	.
8cc	4a	.	2r
8gg	.	.	.
8ff	4r	.	.
8ee-	.	.	.
=147	=147	=147	=147
8dd	4r	4r	4r
8ff	.	.	.
8ee-	4f	4d	4BB-
8dd	.	.	.
8cc	4r	4r	4r
8ee-	.	.	.
8dd	4e-	4A	4F
8cc	.	.	.
=148	=148	=148	=148
8b-	4r	4r	4r
8dd	.	.	.
8cc	4d	4B-	4G
8b-	.	.	.
8a-	4r	4r	4r
8cc	.	.	.
8b-	4f	4B-	4D
8a-	.	.	.
=149	=149	=149	=149
4g	8g	4B-	4E-
.	8dd	.	.
4bb-	8cc	4g	4E
.	8b-	.	.
2cc	4b-	8f	2F
.	.	8g	.
.	4a	8f	.
.	.	8e-	.
=150	=150	=150	=150
4b-	8b-	8d	4BB-
.	8gg	8e-	.
2bb-	8ff	8d	2.r
.	8ee-	8c	.
.	8dd	8B-	.
.	8ee-	8g	.
[4bb-	8dd	8f	.
.	8cc	8e-	.
=151	=151	=151	=151
4bb-]	8b-	8d	4BB-
.	8gg	8e-	.
2bb-	8ff	8d	2.r
.	8ee-	8c	.
.	8dd	8B-	.
.	8ee-	8g	.
[4bb-	8dd	8f	.
.	8cc	8e-	.
=152	=152	=152	=152
8bb-]	4b-	8d	4BB-
8gg	.	8e-	.
8ff	2r	8d	4.r
8ee-	.	8c	.
4dd	.	4B-	.
.	.	.	8d
4ee	4g	4c	8c
.	.	.	8B-
=153	=153	=153	=153
4ff	4f	4c	8A
.	.	.	8B-
2r	2r	2r	8A
.	.	.	8G
.	.	.	8F
.	.	.	8d
4ee	4g	4b-	8c
.	.	.	8B-
=154	=154	=154	=154
4ff	4f	8cc	8A
.	.	8dd	8B-
2r	2r	8cc	8A
.	.	8b-	8G
.	.	8a	8F
.	.	8b-	8G
4aa	4cc	8a	8F
.	.	8g	8E-
=155	=155	=155	=155
4bb-	4b-	8f	8D
.	.	8g	8E-
2r	2r	8f	8D
.	.	8e-	8C
.	.	8d	8BB-
.	.	8e-	8C
4ddd	4ff	8d	8BB-
.	.	8c	8AA-
=156	=156	=156	=156
4eee-	4ee-	8B-	8GG
.	.	8c	8AA-
4r	4r	8B-	8GG
.	.	8A-	8FF
4ggg	4e- 4gg 4b-	4G	4EE-
4r	4r	4r	4r
=157	=157	=157	=157
2r	1r	1r	1r
8r	.	.	.
8aa-	.	.	.
8gg	.	.	.
8ff#	.	.	.
=158	=158	=158	=158
8gg	4dd	4b	1r
8aa-	.	.	.
8gg	4r	4r	.
8ff#	.	.	.
8gg	4dd	4b	.
8aa-	.	.	.
8gg	4r	4r	.
8ff	.	.	.
=159	=159	=159	=159
8ee-	4ee-	4cc	1r
8dd	.	.	.
8ee-	2.r	2.r	.
8dd	.	.	.
8cc	.	.	.
8gg	.	.	.
8ff	.	.	.
8ee	.	.	.
=160	=160	=160	=160
8ff	4cc	4a	1r
8gg	.	.	.
8ff	4r	4r	.
8ee	.	.	.
8ff	4cc	4a	.
8gg	.	.	.
8ff	4r	4r	.
8ee-	.	.	.
=161	=161	=161	=161
8dd	4dd	4b-	2r
8ee-	.	.	.
8dd	4.r	4.r	.
8cc	.	.	.
8b-	.	.	8r
8bb-	8b-	8b-	8B-
8aa	8a	8a	8A
8gg	8g	8g	8G
=162	=162	=162	=162
8ff	8f	8f	8F
8gg	8g	8g	8G
8ff	8f	8f	8F
8ee-	8e-	8e-	8E-
8dd	8d	8d	8D
8bb-	8b-	8b-	8B-
8aa	8a	8a	8A
8gg	8g	8g	8G
=163	=163	=163	=163
8ff	8f	8f	8F
8gg	8g	8g	8G
8ff	8f	8f	8F
8ee-	8e-	8e-	8E-
8dd	8d	8d	8D
8ddd	8dd	8dd	8d
8ccc	8cc	8cc	8c
8bb-	8b-	8b-	8B-
=164	=164	=164	=164
8aa	8a	8a	8A
8bb-	8b-	8b-	8B-
8aa	8a	8a	8A
8gg	8g	8g	8G
8ff	8f	8f	8F
8gg	8g	8g	8G
8ff	8f	8f	8F
8ee-	8e-	8e-	8E-
=165	=165	=165	=165
8dd	8d	8d	8D
8ee-	8ee-	8e-	8E-
8dd	8dd	8d	8D
8cc	8cc	8c	8C
8b-	8b-	8B-	8BB-
8cc	8cc	8c	8C
8b-	8b-	8B-	8BB-
8a	8a	8A	8AA
=166	=166	=166	=166
8g	8g	8G	8GG
8a-	8a-	8A-	8AA-
8g	8g	8G	8GG
8f	8f	8F	8FF
8e-	8e-	8E-	8EE-
8f	8f	8F	8FF
8e-	8e-	8E-	8EE-
8d	8d	8D	8DD
=167	=167	=167	=167
1c	1c	1C	1CC
=168	=168	=168	=168
4d-	4d-	4D-	4DD-
4d	4d	4D	4DD
4e-	4e-	4E-	4EE-
4e	4e	4E	4EE
=169	=169	=169	=169
4f	4f	1F	1FF
8b-	2dd	.	.
8dd	.	.	.
4ff	.	.	.
4bb-	4dd	.	.
=170	=170	=170	=170
4aa	4e- 4cc	4e- 4c	4FF
4ccc	4a 4e-	4e- 4c	4FF
4eee-	4e- 4a	4e- 4c	4FF
4aa	4cc 4e-	4e- 4c	4FF
=171	=171	=171	=171
4bb-	4d 4b-	4d 4B-	4BB-
4r	4r	4r	4r
4ccc	4f 4ee-	4c 4f	4F
4r	4r	4r	4r
=172	=172	=172	=172
4ddd	4dd 4f	4f 4B-	4B-
4r	4r	4r	4r
4aa	4ee- 4f	4c	4F
4r	4r	4r	4r
=173	=173	=173	=173
4bb-	4dd 4f	4d	4BB-
2.r	2.r	2.r	2.r
=174	=174	=174	=174
2ff 2f 2a	2a 2c 2e-	2e- 2c	2F
2r	2r	2r	2r
=175	=175	=175	=175
2B- 2f 2dd	2b- 2d 2B-	2d 2B-	2B- 2D 2BB-
2r	2r	2r	2r
==	==	==	==
*-	*-	*-	*-
!!!RWG1: This file contains only pitch and duration data.
!!!RWG2: Transposing instruments are not transposed.
!!!RWG3: Spines may have incompatible meters.
!!!RWG4: Durations of rests and tied notes may be interpreted.
!!!RWG: Key is interpreted using the Humdrum key tool.
!!!GTL: 6 Quartetti ("Erdödy")
!!!OPT: Sunrise
!!!AFT: stage1
!!!END: 1997/04/15
!!format changes:
!!content changes:
!!public access: complete
!!!KEY: 1547263457
!!!EMD: Converted from MuseData to Humdrum Dec 16, 2000, by Andreas Kornstaedt using muse2kern.
